icons/chart-infected-stable_fill.svg

<svg width="48" height="48" viewBox="0 0 48 48" fill="none" xmlns="http://www.w3.org/2000/svg">
<path d="M19.65 6C19.0977 6 18.65 6.44772 18.65 7C18.65 7.5013 19.0189 7.91645 19.5 7.98883V9.48157C18.561 9.63643 17.6942 10.0058 16.9518 10.5376L15.9642 9.55L16.1071 9.40711C16.4976 9.01658 16.4976 8.38342 16.1071 7.99289C15.7166 7.60237 15.0834 7.60237 14.6929 7.99289L12.9929 9.69289C12.6024 10.0834 12.6024 10.7166 12.9929 11.1071C13.3834 11.4976 14.0166 11.4976 14.4071 11.1071L14.55 10.9642L15.5376 11.9518C15.0058 12.6942 14.6364 13.561 14.4816 14.5H12.9888C12.9165 14.0189 12.5013 13.65 12 13.65C11.4477 13.65 11 14.0977 11 14.65V16.35C11 16.9023 11.4477 17.35 12 17.35C12.5013 17.35 12.9165 16.9811 12.9888 16.5H14.4816C14.6364 17.439 15.0058 18.3058 15.5376 19.0482L14.55 20.0358L14.4071 19.8929C14.0166 19.5024 13.3834 19.5024 12.9929 19.8929C12.6024 20.2834 12.6024 20.9166 12.9929 21.3071L14.6929 23.0071C15.0834 23.3976 15.7166 23.3976 16.1071 23.0071C16.4976 22.6166 16.4976 21.9834 16.1071 21.5929L15.9642 21.45L16.9518 20.4624C17.6942 20.9942 18.561 21.3636 19.5 21.5184V23.0112C19.0189 23.0835 18.65 23.4987 18.65 24C18.65 24.5523 19.0977 25 19.65 25H21.35C21.9023 25 22.35 24.5523 22.35 24C22.35 23.4987 21.9811 23.0835 21.5 23.0112V21.5184C22.6467 21.3293 23.6857 20.8204 24.5221 20.0863L25.8858 21.45L25.7429 21.5929C25.3524 21.9834 25.3524 22.6166 25.7429 23.0071C26.1334 23.3976 26.7666 23.3976 27.1571 23.0071L28.8571 21.3071C29.2476 20.9166 29.2476 20.2834 28.8571 19.8929C28.4666 19.5024 27.8334 19.5024 27.4429 19.8929L27.3 20.0358L25.795 18.5308C26.149 17.9136 26.3983 17.2285 26.5184 16.5H28.0112C28.0835 16.9811 28.4987 17.35 29 17.35C29.5523 17.35 30 16.9023 30 16.35V14.65C30 14.0977 29.5523 13.65 29 13.65C28.4987 13.65 28.0835 14.0189 28.0112 14.5H26.5184C26.3636 13.561 25.9942 12.6942 25.4624 11.9518L26.45 10.9642L26.5929 11.1071C26.9834 11.4976 27.6166 11.4976 28.0071 11.1071C28.3976 10.7166 28.3976 10.0834 28.0071 9.69289L26.3071 7.99289C25.9166 7.60237 25.2834 7.60237 24.8929 7.99289C24.5024 8.38342 24.5024 9.01658 24.8929 9.40711L25.0358 9.55L24.0482 10.5376C23.3058 10.0058 22.439 9.63643 21.5 9.48157V7.98882C21.9811 7.91645 22.35 7.5013 22.35 7C22.35 6.44772 21.9023 6 21.35 6H19.65Z" fill="black"/>
<path d="M18.9251 31.6207C20.1554 31.2147 21.5241 31 22.9198 31C24.3154 31 25.6842 31.2148 26.9146 31.6207L30.5867 32.8317C32.9233 33.6019 35.4878 33.9996 38.08 34H39.3663L36.2927 37.0748C35.9023 37.4654 35.9024 38.0986 36.293 38.489C36.6836 38.8795 37.3168 38.8793 37.7073 38.4887L42.4873 33.7067C42.8776 33.3162 42.8776 32.6833 42.4873 32.2928L37.7073 27.5108C37.3168 27.1202 36.6836 27.1201 36.293 27.5105C35.9024 27.901 35.9023 28.5341 36.2927 28.9247L39.3667 32H38.08C35.6874 31.9996 33.3353 31.6318 31.2128 30.9323L27.541 29.7213C26.0963 29.2447 24.5151 29 22.9198 29C21.3246 29 19.743 29.2448 18.2985 29.7213L14.6268 30.9283C12.5754 31.6044 10.3096 31.9706 8 31.9947V6H6V41C6 41.5523 6.44772 42 7 42H42V40H8V33.9948C10.5101 33.9707 12.9886 33.574 15.2528 32.8277L18.9251 31.6207Z" fill="black"/>
</svg>

<svg
  xmlns="http://www.w3.org/2000/svg"
  width="24"
  height="24"
  viewBox="0 0 24 24"
  fill="none"
  stroke="currentColor"
  stroke-width="2"
  stroke-linecap="round"
  stroke-linejoin="round"
>
  <path d="M19.65 6a1 1 0 0 0-.15 1.989v1.493a6.1 6.1 0 0 0-2.548 1.056l-.988-.988.143-.143a1 1 0 0 0-1.414-1.414l-1.7 1.7a1 1 0 0 0 1.414 1.414l.143-.143.988.988a6.1 6.1 0 0 0-1.056 2.548h-1.493a1 1 0 0 0-1.989.15v1.7a1 1 0 0 0 1.989.15h1.493a6.1 6.1 0 0 0 1.056 2.548l-.988.988-.143-.143a1 1 0 0 0-1.414 1.414l1.7 1.7a1 1 0 0 0 1.414-1.414l-.143-.143.988-.988c.742.532 1.609.902 2.548 1.056v1.493A1 1 0 0 0 19.65 25h1.7a1 1 0 0 0 .15-1.989v-1.493a6.1 6.1 0 0 0 3.022-1.432l1.364 1.364-.143.143a1 1 0 0 0 1.414 1.414l1.7-1.7a1 1 0 0 0-1.414-1.414l-.143.143-1.505-1.505a6 6 0 0 0 .723-2.031h1.493A1 1 0 0 0 30 16.35v-1.7a1 1 0 0 0-1.989-.15h-1.493a6.1 6.1 0 0 0-1.056-2.548l.988-.988.143.143a1 1 0 0 0 1.414-1.414l-1.7-1.7a1 1 0 1 0-1.414 1.414l.143.143-.988.988A6.1 6.1 0 0 0 21.5 9.482V7.989A1 1 0 0 0 21.35 6z" />
  <path d="M18.925 31.62c1.23-.405 2.6-.62 3.995-.62s2.764.215 3.995.62l3.672 1.212c2.336.77 4.9 1.168 7.493 1.168h1.286l-3.073 3.075a1 1 0 0 0 1.414 1.414l4.78-4.782a1 1 0 0 0 0-1.414l-4.78-4.782a1 1 0 0 0-1.414 1.414L39.367 32H38.08c-2.393 0-4.745-.368-6.867-1.068l-3.672-1.21A14.9 14.9 0 0 0 22.92 29a14.9 14.9 0 0 0-4.622.721l-3.671 1.207c-2.052.676-4.317 1.043-6.627 1.067V6H6v35a1 1 0 0 0 1 1h35v-2H8v-6.005c2.51-.024 4.989-.421 7.253-1.167z" />
</svg>
